X:1
T:Title
%%score { ( 1 3 ) | ( 2 4 ) }
L:1/8
M:4/4
K:Bb
V:1 treble nm="Grand Piano"
V:3 treble 
V:2 bass 
V:4 bass 
V:1
 z4 z2[Q:1/4=100] [DF][DF] | [DB]2 [FB]2 BAGA | [DB]2 [Ec]2 [DF]2 FF | c2 c2 cBcd | %4
 [Ec]2 [DB]2 [DB]2 Bc | d2 d2 d[Fc][FB][FA] | G2 B2 B2 BB | [=Ec]2 [Ec]2 [Ec][Ed][Ec][EB] | %8
[M:9/8] [C=EA]2 [B,EG]- [B,EG] F2- F3 |[M:4/4] [DB]->[D-FB-] [D-FB-][DFB] E2 EA | %10
 [EG]2 [EG]2 [B,D]4 | [DB]4[K:bass] [EA]4[K:treble] |[M:7/8] [FB]2 c2 d3 |[M:1/4] d>e | %14
[M:4/4] d2 c2 c2 c>d | [Ec]2 [DB]2 [DB]2 AG | F2 d2 d c3 |[M:7/8] A2 F2 [DFB]3 |] %18
V:2
 z4 z2 [B,,B,][B,,B,] | [B,,F,]2 [D,B,]2 [F,DF][F,CE][F,CE][F,E] | %2
 [B,,F,]2 [B,,F,]2 [B,,B,]2 [B,D][B,D] | [F,A,E]2 [F,A,E]2 [F,A,E][F,B,D][F,A,F][F,B,F] | %4
 [B,,B,]2 [B,,F,]2 [B,,F,]2[K:treble] [B,D][B,E] | %5
 [B,F]2 [B,F]2 [F,B,F][K:bass][E,A,][D,B,][D,B,] | [E,B,E]2 [E,G,E]2 [E,G,E]2 [E,G,E][E,G,E] | %7
 [C,G,]2 [C,G,]2 [C,G,][C,B,][C,A,][C,G,] |[M:9/8] C,2 C,- C, z z E3 | %9
[M:4/4] B,>B, B,B, F,2 F,[F,CE] | [B,,B,]2 [B,,B,]2 [B,,F,]4 | %11
 [B,,F,]>B,, B,,B,, [C,F,]2 z [C,F,] |[M:7/8] [D,F,]2[K:treble] [F,A,F]2 [B,F]3 | %13
[M:1/4] [B,F]>[B,G] |[M:4/4] [F,B,F]2[K:bass] [F,A,E]2 [F,A,E]2 [F,A,E]>[F,A,F] | %15
 [B,,B,]2 [B,,F,]2 [B,,F,]2 [E,CE][E,B,E] | [F,B,D]2 [F,B,F]2 [F,B,F] [F,A,F]3 | %17
[M:7/8] [F,CF]2 [F,E]2 B,,3 |] %18
V:3
 x8 | x8 | x8 | x8 | x8 | x8 | x8 | x8 |[M:9/8] z3 z A,2 z3 |[M:4/4] F2 z2 [CA]4 | x8 | %11
 z z/[K:bass] F,/ F,F, z2 [C,F,][K:treble][EA] |[M:7/8] x7 |[M:1/4] x2 |[M:4/4] x8 | x8 | x8 | %17
[M:7/8] x7 |] %18
V:4
 x8 | x8 | x8 | x8 | x6[K:treble] x2 | x5[K:bass] x3 | x8 | x8 |[M:9/8] z3 z F,2- F,3 |[M:4/4] x8 | %10
 x8 | x8 |[M:7/8] x2[K:treble] x5 |[M:1/4] x2 |[M:4/4] x2[K:bass] x6 | x8 | x8 |[M:7/8] x7 |] %18

